X: 39535
T: Taybank Shenanigans
R: reel
M: 4/4
K: Dmajor
A2|:D2 (3FED FAFA|G2 (3Bcd edcB|Aa(3aaa a^g(3ggg|^g=g(3ggg gfec|
d2 (3FED FAFA|G2 (3Bcd edcB|Ac(3ccc cB(3BBB|BA(3AAA AGFE:|
|:FBBA B2 AB|dBBA B2 A||zBBA B2 Af|edBA B2 AG|
FBBA B2 AB|dBBA B2 AB|efaf b2 af|1 edBA B2 AG:|2 edBA BAFE||

